X: 1249
T: The Boys of Portaferry
M:C|
L:1/8
R:Reel
B:O'Neill's 1249
N:Collected by O'Reilly
Z:Transcribed by Trish O'Neil
K:G
BA|G2(BG) AcBA|G2(BG) GEDE|G2(BG) ABce|dBgBc2BA|
G2(BG) AcBA|G2(BG) GEDE|G2(BG) ABce|dB"End"ABG2||
GA|Bdgd edgd|Bdgde2(dc)|Bdgd edef|gedBc2BA|
Bdgd edgd|Bdgde2dc|Bdgd egfa|ge"D.C."dBc2||


